X: 37
T:Spring Garden. 1665.
T:John Malchair's Third Collection of Tunes
%%VWML:Malchair-3619-p38
F:https://www.vwml.org/record/Malchair/3619/p38
F:www.vwml.org/topics/historic-dance-and-tune-books/Malchair
Z:Eric Conran Jan 2020
M:3/2
L:1/4
A2A c2c|d>ed a3
K:Am
A2A c2c|d>ed a3|A3 c3|d>ed ^cA2||
f2f g>fe|fa2 g2e|f2f g>fe|fa2 g2e|
fga g>fe|ded f>ga|A3c3|d>ed ^cA2|]
W:
T:The Queen's Jigg
T:John Malchair's Third Collection of Tunes
%%VWML:Malchair-3619-p38
F:https://www.vwml.org/record/Malchair/3619/p38
F:www.vwml.org/topics/historic-dance-and-tune-books/Malchair
Z:Eric Conran Jan 2020
M:6/4
L:1/4
K:D
A|d2e (fd)f|g3 e2(f//g//a)|(fg)f e2d|e3 A2A|
d2e (fd)f|g3 f2(f//g//a/)|(fg)f e2d|d3-d2||
a|(ab)a g2f|g3f2 (f//g//a/)|(fg)f e2d|e3 A2a|
(ab)a g2f|g3 f2(f//g//a/)|(fg) e2d|d3-d2||
W:
T:Simple Simon.1665.the best copy
T:John Malchair's Third Collection of Tunes
%%VWML:Malchair-3619-p38
F:https://www.vwml.org/record/Malchair/3619/p38
F:www.vwml.org/topics/historic-dance-and-tune-books/Malchair
Z:Eric Conran Jan 2020
M:C|
L:1/8
K:C|
G2G2G2G2|c> d e> c A2>B2|c2c2c2G2|c> d e> f g2 f (e// f//)|
g2G2G2G2|c> d d> c A2>B2|(G< E) (G< E) (G< E) (F< E)|G2A B/ c4|]
W:see another collection 2'. p.40.



I:abc-charset utf-8
